X: 17651
T: Holey Ha'penny, The
R: jig
M: 6/8
K: Gmajor
|:F2D DFD|AFD EFG|F2D DFD|ABc dAG|
F2D DFD|AFD DFD|E2=c cBc|G3 GFE:|
|:F2d dcd|F2A AGA|F2d dcd|ABA BAG|
F2d dcd|F2A AFA|E2=c cBC|G3 GFE:|
f2d dfd|dfd efg|f2d dfd|a3 bag|
f2d dfd|afd dfd|e2=c cdc|gfg efg|
fdf ece|dcd BAG|F2d dcd|A3 ABc|
dBd cAc|BGB AGF|E2=c cBc|GAG BAG||
|:c|B2G GAG|dBG GAG|B2G GAG|d3 edc|
B2G GAG|dBG GBG|A2f ede|c3 ed:|
|:c|B2g gfg|B2d dcd|B3 gfg|d3 edc|
B3 gfg|B3 dcB|A2f ede|c3 ed:|

